**kern	**kern	**kern	**kern
*MM60	*MM60	*MM60	*MM60
*k[b-e-]	*k[b-e-]	*k[b-e-]	*k[b-e-]
*M2/4	*M2/4	*M2/4	*M2/4
*tb32	*tb32	*tb32	*tb32
=1	=1	=1	=1
8g	2r	2r	2r
16f#	.	.	.
16g	.	.	.
8a	.	.	.
8f#	.	.	.
=2	=2	=2	=2
4g	2r	2r	2r
8r	.	.	.
8a	.	.	.
=3	=3	=3	=3
8b-	2r	2r	2r
8b	.	.	.
8cc	.	.	.
8cc#	.	.	.
=4	=4	=4	=4
4dd	8d	2r	2r
.	16c#	.	.
.	16d	.	.
4r	8e	.	.
.	8c#	.	.
=5	=5	=5	=5
8dd	4d	2r	2r
8a	.	.	.
8f#	8r	.	.
[8dd	8d	.	.
=6	=6	=6	=6
8dd]	8e-	2r	2r
8cc	8e	.	.
8b-	8f	.	.
8a	8f#	.	.
=7	=7	=7	=7
8b-	4g	8G	2r
16a	.	16F#	.
16b-	.	16G	.
8cc	4r	8A	.
8a	.	8F#	.
=8	=8	=8	=8
4b-	8g	4G	2r
.	8d	.	.
8r	8B-	8r	.
8cc	8f#	8A	.
=9	=9	=9	=9
4.dd	4.g	8B-	2r
.	.	8B	.
.	.	8c	.
8ee	8g	8c#	.
=10	=10	=10	=10
4dd	8f#	2r	8D
.	16e	.	16C#
.	16f#	.	16D
4r	8g	.	8E
.	8e	.	8C#
=11	=11	=11	=11
8dd	4f#	2r	4D
8a	.	.	.
8f#	8r	.	8r
8dd	8d	.	8D
=12	=12	=12	=12
4dd	4g	2r	8E-
.	.	.	8E
4cc	4a	.	8F
.	.	.	8F#
=13	=13	=13	=13
8b-	4g	2r	8G
16a	.	.	16F#
16b-	.	.	16G
8cc	4r	.	8A
8a	.	.	8F#
=14	=14	=14	=14
8b-	2r	2r	4G
16dd	.	.	.
16cc	.	.	.
16b-	.	.	4r
16a	.	.	.
16g	.	.	.
16f	.	.	.
=15	=15	=15	=15
8e	8c	2r	2r
16d	16B	.	.
16e	16c	.	.
8f	8d	.	.
8d	8B	.	.
=16	=16	=16	=16
8e	4c	2r	2r
16ee	.	.	.
16dd	.	.	.
16cc	4r	.	.
16b-	.	.	.
16a	.	.	.
16g	.	.	.
=17	=17	=17	=17
8a	8f	2r	2r
16g	16e	.	.
16a	16f	.	.
8b-	8g	.	.
8g	8e	.	.
=18	=18	=18	=18
8a	4f	2r	2r
16cc	.	.	.
16b-	.	.	.
16a	4r	.	.
16g	.	.	.
16f	.	.	.
16e-	.	.	.
=19	=19	=19	=19
8d	8B-	2r	2r
16c	16A	.	.
16d	16B-	.	.
8e-	8c	.	.
8c	8A	.	.
=20	=20	=20	=20
4d	4B-	2r	8BB-
.	.	.	16AA
.	.	.	16BB-
4r	4r	.	8C
.	.	.	8AA
=21	=21	=21	=21
8b-	4r	2r	4BB-
8f	.	.	.
8d	8r	.	8r
[8b-	8d	.	8BB-
=22	=22	=22	=22
8b-]	4e-	2r	4C
16a-	.	.	.
16g	.	.	.
8a-	4f	.	4D
8b-	.	.	.
=23	=23	=23	=23
8a-	4B-	2r	4E-
16g	.	.	.
16f	.	.	.
8g	8r	.	8r
[8cc	8e	.	8C
=24	=24	=24	=24
8cc]	4f	2r	4D
16b-	.	.	.
16a	.	.	.
8b-	4g	.	4E
8cc	.	.	.
=25	=25	=25	=25
8b-	4c	2r	4F
16a	.	.	.
16g	.	.	.
8a	8r	.	8r
[8ff	8a	.	8F
=26	=26	=26	=26
8ff]	4b-	2r	4G
16ee-	.	.	.
16dd	.	.	.
8ee-	4cc	.	4A
8ff	.	.	.
=27	=27	=27	=27
8ee-	4f	2r	8BB-
16dd	.	.	16B-
16cc	.	.	16A
8dd	4r	.	8B-
8ee-	.	.	8G
=28	=28	=28	=28
8dd	2r	2r	8AA
16cc	.	.	16A
16b-	.	.	16G
8cc	.	.	8A
8dd	.	.	8F#
=29	=29	=29	=29
8cc	2r	2r	8GG
16b-	.	.	16G
16a	.	.	16F#
8b-	.	.	8G
8cc	.	.	8C
=30	=30	=30	=30
4a	4f#	4d	8D
.	.	.	16C#
.	.	.	16D
4r	4r	4r	8E
.	.	.	8C#
=31	=31	=31	=31
8dd	2r	2r	4D
16cc#	.	.	.
16dd	.	.	.
8ee	.	.	4r
8cc#	.	.	.
=32	=32	=32	=32
4dd	4r	8d	2r
.	.	8A	.
8r	8r	8F#	.
8dd	8B-	8G	.
=33	=33	=33	=33
8ee-	4c	4C	2r
8ee	.	.	.
8ff	8r	8r	.
8ff#	8c	8A	.
=34	=34	=34	=34
4gg	8B-	4G	2r
.	8B	.	.
8r	8c	4E	.
8gg	8c#	.	.
=35	=35	=35	=35
8ff	4d	4D	2r
8ff#	.	.	.
8gg	8r	8r	.
8gg#	8d	8B-	.
=36	=36	=36	=36
8aa	4c#	4A	2r
16ee	.	.	.
16cc#	.	.	.
8a	8r	8r	.
8aa	8c#	8A	.
=37	=37	=37	=37
8gg#	4e	4E	2r
8gg	.	.	.
8b-	4c#	4c#	.
8gg	.	.	.
=38	=38	=38	=38
8ff#	4d	4d	2r
8ff	.	.	.
8a-	4d	4B	.
8ff	.	.	.
=39	=39	=39	=39
8ee	4c	4c	2r
8ee-	.	.	.
8f#	4c	4A	.
8ee-	.	.	.
=40	=40	=40	=40
8dd	4d	4B-	2r
8g	.	.	.
8f#	4c	4A	.
8cc	.	.	.
=41	=41	=41	=41
8b-	4d	8G	2r
16a	.	16F#	.
16b-	.	16G	.
8cc	4r	8A	.
8a	.	8F#	.
=42	=42	=42	=42
8b-	2r	4G	2r
16g	.	.	.
16a	.	.	.
8b-	.	8r	.
8cc	.	8A	.
=43	=43	=43	=43
8dd	2r	8B-	2r
8g	.	8B	.
8ee	.	8c	.
8g	.	8c#	.
=44	=44	=44	=44
8f#	2r	8d	2r
16e	.	16c#	.
16f#	.	16d	.
8g	.	8e	.
8e	.	8c#	.
=45	=45	=45	=45
8f#	2r	8d	2r
8a	.	8A	.
16dd	.	8F#	.
16cc	.	.	.
16b-	.	8D	.
16a	.	.	.
=46	=46	=46	=46
4b-	4g	4d	8GG
.	.	.	16FF#
.	.	.	16GG
4r	4r	4r	8AA
.	.	.	8FF#
=47	=47	=47	=47
8g	2r	4r	4GG
16d	.	.	.
16c	.	.	.
8B-	.	8r	8r
8g	.	16B-	16GG
.	.	16c	16AA
=48	=48	=48	=48
4.g	2r	4d	8BB-
.	.	.	8BB
.	.	8e-	8C
8g	.	8e	8C#
=49	=49	=49	=49
8f#	2r	8d	4D
16e	.	16c#	.
16f#	.	16d	.
8g	.	8e	4r
8e	.	8c#	.
=50	=50	=50	=50
4f#	2r	4d	8D
.	.	.	8AA
8r	.	8r	8FF#
8dd	.	8d	8DD
=51	=51	=51	=51
4dd	2r	8e-	4GG
.	.	8e	.
[4cc	.	8f	4AA
.	.	8f#	.
=52	=52	=52	=52
8cc]	2r	4g	4BB-
16b-	.	.	.
16a	.	.	.
8b-	.	8r	8r
[8dd	.	8f	8BB
=53	=53	=53	=53
8dd]	2r	4e	4C
16cc	.	.	.
16b-	.	.	.
4cc	.	8r	8r
.	.	8c	8AA
=54	=54	=54	=54
8cc	2r	4d	4BB-
16b-	.	.	.
16a	.	.	.
[4b-	.	8r	8r
.	.	8B-	8GG
=55	=55	=55	=55
8b-]	2r	4c	4AA
16a	.	.	.
16g	.	.	.
[4a	.	8r	8r
.	.	8c	8FF#
=56	=56	=56	=56
8a]	2r	4B-	4GG
16g	.	.	.
16f#	.	.	.
4g	.	8r	8r
.	.	8B-	8C#
=57	=57	=57	=57
8g	2r	4A	4D
16f#	.	.	.
16e	.	.	.
8f#	.	8r	8r
8a	.	[8c	8F#
=58	=58	=58	=58
8a	2r	8c]	4G
16g	.	16B-	.
16f#	.	16A	.
4g	.	4B-	4r
=59	=59	=59	=59
8g	2r	8G	2r
16f#	.	16F#	.
16g	.	16G	.
8a	.	8A	.
8f#	.	8F#	.
=60	=60	=60	=60
4g	2r	4G	2r
8r	.	8r	.
8a	.	8A	.
=61	=61	=61	=61
8b-	2r	8B-	2r
8b	.	8B	.
8cc	.	8c	.
8cc#	.	8c#	.
=62	=62	=62	=62
4dd	2r	4d	4r
8r	.	8r	8r
8A	.	8AA	8AA
=63	=63	=63	=63
8B-	2r	8BB-	8BB-
8B	.	8BB	8BB
8c	.	8C	8C
8c#	.	8C#	8C#
=64	=64	=64	=64
4d	2r	4D	4D
4r	.	4r	4r
=65	=65	=65	=65
8b-	2r	8G	2r
16a	.	16F#	.
16b-	.	16G	.
8cc	.	8A	.
8a	.	8F#	.
=66	=66	=66	=66
8.b-	8.r	8.G	2r
16b-	16a	16F	.
8.b-	8.g	8.E	.
16b-	16f	16D	.
=67	=67	=67	=67
8.b-	8.e	8.C#	2r
16b-	16e	16C#	.
8.b-	8.e	8.C#	.
16b-	16e	16C#	.
=68	=68	=68	=68
4f# 4a	4d	4F# 4A	2r
8r	8r	8r	.
8f# 8a	8d	8F# 8A	.
=69	=69	=69	=69
4.dd 4.a- 4.f 4.d	2r	4.D 4.F 4.A-	4.BB
8dd 8a- 8f 8d	.	8D 8F 8A-	8BB
=70	=70	=70	=70
4dd 4g 4e-	2r	4.E- 4.G	4.C
4cc 4g 4e-	.	.	.
.	.	8E- 8G	8C
=71	=71	=71	=71
4.cc 4.a 4.f#	4.d	4.F#	4.D
8b- 8g	8e	8G	8C#
=72	=72	=72	=72
4a	8g	2r	2D
.	16f#	.	.
.	16e	.	.
4a	8f#	.	.
.	8c	.	.
=73	=73	=73	=73
2g	2d	2B-	2G
==	==	==	==
*-	*-	*-	*-
